src/assets/Vector (16).svg

<svg width="107" height="122" viewBox="0 0 107 122" fill="none" xmlns="http://www.w3.org/2000/svg">
<g filter="url(#filter0_d_294_29844)">
<path fill-rule="evenodd" clip-rule="evenodd" d="M81.7038 0.324538C79.7541 0.848632 78.2022 1.79171 76.7038 3.36254C75.2151 4.92319 74.3131 6.65774 73.8871 8.77906C73.4037 11.1864 74.1456 19.4452 75.4088 25.7191C75.6755 27.0429 75.9482 28.2146 76.015 28.3226C76.1957 28.6147 92.0316 28.5716 92.2127 28.2783C92.4825 27.8416 93.5239 22.1149 93.8901 19.0529C95.033 9.49666 94.529 6.29422 91.3772 3.0879C88.7962 0.462343 85.1082 -0.591173 81.7038 0.324538ZM42.1252 26.2292C17.7389 29.5517 0.700262 52.3839 4.54087 76.5935C7.51396 95.3347 22.1319 109.988 40.9908 113.131C48.7612 114.426 57.2484 113.441 64.4944 110.404C67.1337 109.297 67.0131 109.531 66.0836 107.327C62.4498 98.7105 60.5661 88.3374 60.9425 79.0161C61.3537 68.8294 63.3784 61.2107 68.8697 49.1859C71.1838 44.1183 71.5244 42.6994 71.683 37.4587C71.8382 32.3272 72.1756 32.8624 67.2682 30.458C59.229 26.5191 50.6219 25.0715 42.1252 26.2292ZM76.8595 36.7043C76.8595 39.8522 76.6086 42.0752 75.9753 44.5385C75.7818 45.2905 75.6236 46.026 75.6236 46.1733C75.6236 46.3639 78.0707 46.4412 84.1002 46.4412C88.7623 46.4412 92.5768 46.4085 92.5768 46.3683C92.5768 46.3283 92.352 45.3201 92.0776 44.128C91.7276 42.6085 91.5368 40.712 91.439 37.783L91.2997 33.6052H84.0796H76.8595V36.7043ZM37.1822 41.8486C34.3512 43.2876 34.3982 47.2467 37.2626 48.6334C39.8126 49.8676 42.6861 48.0645 42.6861 45.2302C42.6861 42.384 39.7174 40.5601 37.1822 41.8486ZM27.1864 49.3772C25.0224 50.2401 24.0595 53.0839 25.3092 54.9201C26.5581 56.7554 28.3247 57.2851 30.1878 56.3834C33.0618 54.9921 33.0982 50.986 30.2491 49.6068C29.1336 49.067 28.1496 48.9931 27.1864 49.3772ZM72.03 54.4939C68.5413 62.2219 66.4474 70.8382 66.0412 79.1365C65.5598 88.9756 68.3948 101.296 73.3473 110.885C74.2759 112.683 74.6423 113.163 75.2921 113.435C76.5209 113.948 91.824 113.919 92.9156 113.401C95.3563 112.243 99.8867 100.403 101.392 91.2458C103.304 79.6225 101.675 67.354 96.6717 55.6888C96.0042 54.1325 95.2977 52.614 95.1018 52.3142L94.7453 51.7693H84.0026H73.2601L72.03 54.4939ZM37.1822 57.3486C34.3512 58.7876 34.3982 62.7467 37.2626 64.1334C39.8126 65.3676 42.6861 63.5645 42.6861 60.7302C42.6861 57.884 39.7174 56.0601 37.1822 57.3486Z" fill="#00AACB"/>
</g>
<defs>
<filter id="filter0_d_294_29844" x="0" y="0" width="106.17" height="121.805" filterUnits="userSpaceOnUse" color-interpolation-filters="sRGB">
<feFlood flood-opacity="0" result="BackgroundImageFix"/>
<feColorMatrix in="SourceAlpha" type="matrix" values="0 0 0 0 0 0 0 0 0 0 0 0 0 0 0 0 0 0 127 0" result="hardAlpha"/>
<feOffset dy="4"/>
<feGaussianBlur stdDeviation="2"/>
<feComposite in2="hardAlpha" operator="out"/>
<feColorMatrix type="matrix" values="0 0 0 0 0 0 0 0 0 0 0 0 0 0 0 0 0 0 0.25 0"/>
<feBlend mode="normal" in2="BackgroundImageFix" result="effect1_dropShadow_294_29844"/>
<feBlend mode="normal" in="SourceGraphic" in2="effect1_dropShadow_294_29844" result="shape"/>
</filter>
</defs>
</svg>

<svg xmlns="http://www.w3.org/2000/svg" width="107" height="122" fill="none" viewBox="0 0 107 122"><g filter="url(#a)"><path fill="#00aacb" fill-rule="evenodd" d="M81.704.325c-1.95.524-3.502 1.467-5 3.038-1.489 1.56-2.39 3.295-2.817 5.416-.483 2.407.259 10.666 1.522 16.94.266 1.324.54 2.496.606 2.604.18.292 16.017.249 16.198-.045.27-.436 1.31-6.163 1.677-9.225 1.143-9.556.639-12.759-2.513-15.965-2.58-2.626-6.269-3.68-9.673-2.763M42.125 26.229C17.74 29.552.7 52.384 4.541 76.594c2.973 18.74 17.59 33.394 36.45 36.537 7.77 1.295 16.257.31 23.503-2.727 2.64-1.107 2.52-.873 1.59-3.077-3.634-8.617-5.518-18.99-5.142-28.31.412-10.188 2.436-17.806 7.928-29.831 2.314-5.068 2.654-6.487 2.813-11.727.155-5.132.493-4.597-4.415-7.001-8.039-3.939-16.646-5.386-25.143-4.229M76.86 36.704c0 3.148-.251 5.371-.885 7.834-.193.753-.351 1.488-.351 1.635 0 .19 2.447.268 8.476.268 4.662 0 8.477-.033 8.477-.073s-.225-1.048-.5-2.24c-.35-1.52-.54-3.416-.638-6.345l-.14-4.178H76.86zM37.182 41.85c-2.83 1.439-2.784 5.398.08 6.784a3.746 3.746 0 0 0 5.424-3.403c0-2.846-2.969-4.67-5.504-3.381m-9.996 7.528c-2.164.863-3.126 3.707-1.877 5.543 1.25 1.835 3.016 2.365 4.879 1.463 2.874-1.39 2.91-5.397.061-6.776-1.115-.54-2.1-.614-3.063-.23m44.844 5.117c-3.489 7.728-5.583 16.344-5.989 24.643-.481 9.839 2.354 22.159 7.306 31.748.929 1.798 1.295 2.278 1.945 2.55 1.229.513 16.532.484 17.624-.034 2.44-1.158 6.97-12.998 8.476-22.155 1.912-11.623.283-23.892-4.72-35.557-.668-1.556-1.374-3.075-1.57-3.375l-.357-.545H73.26zM37.182 57.35c-2.83 1.439-2.784 5.398.08 6.784a3.746 3.746 0 0 0 5.424-3.403c0-2.846-2.969-4.67-5.504-3.381" clip-rule="evenodd"/></g><defs><filter id="a" width="106.17" height="121.805" x="0" y="0" color-interpolation-filters="sRGB" filterUnits="userSpaceOnUse"><feFlood flood-opacity="0" result="BackgroundImageFix"/><feColorMatrix in="SourceAlpha" result="hardAlpha" values="0 0 0 0 0 0 0 0 0 0 0 0 0 0 0 0 0 0 127 0"/><feOffset dy="4"/><feGaussianBlur stdDeviation="2"/><feComposite in2="hardAlpha" operator="out"/><feColorMatrix values="0 0 0 0 0 0 0 0 0 0 0 0 0 0 0 0 0 0 0.25 0"/><feBlend in2="BackgroundImageFix" result="effect1_dropShadow_294_29844"/><feBlend in="SourceGraphic" in2="effect1_dropShadow_294_29844" result="shape"/></filter></defs></svg>
